X:1
T:O Lord, of whom I do depend - Mundy
T:#
%%score [ 1 2 3 4 ]
L:1/8
Q:1/4=108
M:4/2
K:C
V:1 treble nm="Soprano" snm="S"
V:2 treble nm="Alto" snm="A"
V:3 treble-8 nm="Tenor" snm="T"
V:4 bass nm="Bass" snm="B"
V:1
"^O Lord, of whom I do depend" z4 z4 | z16 | z4 z4 E4"^John Mundy\n(?-1630)" A4- | %3
w: ||O Lord,|
 A2 G2 A2 B2 c2 A2 B2 E2 |[M:4/2] G2 F2 E8 D4 | E4 E4 E4 B,4 | C6 D2 E4 B4 | c6 A2 d4 c4 | %8
w: * of whom I do de- pend, O|Lord, of whom I|do de- pend, I|do de- pend, be-|hold my care- ful|
 B8 z4 A4 | B4 (A4- A2 ^G^F G4) | A6 c2 B4 A4 | ^G8 z4 B4 | e6 A2 ^G2 E2 G2 A2 | B6 =G2 E6 F2 | %14
w: heart, be-|hold, be\- * * * *|hold my care- ful|heart: and|when thy will and plea- sure|is, and when thy|
 E4 A4 c4 B4 | E4 e8 d4- | d4 c4 B4 A4 | B4 A4 G4 G4- | G2 (F2 E2 D2) E8 | ^C8 z4 z4 | %20
w: will and plea- sure|is, re- lease|* me of my|smart, re- lease me|* of * * my|smart.|
 z8 z4 z2 A2 | G4 E4 B3 B A2 G2 | ^F8 (G4 F2) (E2 | G4) ^F4 z4 e4- | e4 d6 c2 c4- | c4 B4 c8 | %26
w: Thou|seest my sor- rows what they|are, what * they|* are, my|* grief is known|* to thee:|
 A4 d8 c4 | B8 c4 B4- | B4 A4 ^G8 | z4 B4 d4 c4 | B8 c4 e4- | e2 d2 d8 c4 | %32
w: and there is|none that can|* re- move,|or take the|same, or take|* the same from|
 B2 (E2 =G4) A2 c3 B (A2 | ^G4 A4) =G4 G4- | G2 ^F2 E6 (D2 B,4) | ^C16 |] %36
w: me, or * take the same from|* me, or take|* the same from *|me.|
V:2
 A,4 E4- | E2 D2 E2 F2 G2 (E2 F4) | E8 z4 A,4 | E6 D2 E2 F2 G2 A2 |[M:4/2] B4 z4 E4 A4- | %5
w: O Lord,|* of whom I do de\- *|pend, O|Lord, of whom I do de-|pend, O Lord,|
 A2 G2 A2 B2 c2 A2 B4- | B2 A2 A8 ^G4 | A6 (c2 B4) A4- | A4 ^G4 A4 (F4 | D8) E4 B4 | c6 A2 d4 c4 | %11
w: * of whom I do de- pend,|* I do de-|pend, be\- * hold|* my care- ful|* heart, be-|hold my care- ful|
 B4 B4 B6 =G2 | E8 z4 z4 | z4 z4 z4 A4 | e6 A2 ^G2 E2 G2 A2 | B6 A2 =G2 G2 ^F4 | z4 e8 d4- | %17
w: heart, my care- ful|heart:|and|when thy will and plea- sure|is, and plea- sure is,|re- lease|
 d4 c4 c4 B4- | B2 A2 A8 ^G4 | A4 A4 =G4 E4 | A3 A G2 F2 E2 (C2 D4) | E8 B,4 C4 | D8 E4 e4- | %23
w: * me, re- lease|* me of my|smart. Thou seest my|sor- rows what they are, my *|sor- rows what|they are, my|
 e4 d6 (c2 B4) | A2 G2 G4 A4 G4- | G2 (F2 D4) E4 E4 | ^F4 ^G4 A8 | z4 z4 A4 d4- | d4 c4 B6 A2 | %29
w: * grief is *|known to thee, is known|* to * thee: and|there is none,|and there|* is none that|
 =G4 G2 ^F4 G2 A4- | A4 ^G4 A2 B2 c4- | c2 (B2 A4) B4 A4 | ^G4 B4 e6 d2 | B4 c8 B4- | %34
w: can re- move, that can|* re- move, or take|* the * same from|me, or take the|same, or take|
 B2 A2 A8 ^G4 | A16 |] %36
w: * the same from|me.|
V:3
 z4 z4 | z4 z4 E4 A4- | A2 G2 A2 B2 c6 A2 | c6 B2 A4 G4 | %4
w: |O Lord,|* of whom I do de-|pend, O Lord, of|
[M:4/2][K:treble-8] E2 F2 G2 A2 B2 G2 A2 B2 | c4 B4 A4 e4- | e4 d2 c2 (B2 A2) B4 | A4 A4 B4 c4 | %8
w: whom I do de- pend, O Lord, of|whom I do de\-|* pend, I do * de-|pend, be- hold my|
 d4 e4 A8 | z4 A4 B4 e4 | e8 (g4 e4) | e8 d4 e4 | (A4 e4) B4 e4 | g6 e2 c2 A2 c2 d2 | A4 A4 e6 A2 | %15
w: care- ful heart,|be- hold my|care- ful *|heart, my care-|ful * heart: and|when thy will and plea- sure|is, and when thy|
 ^G2 E2 G2 A2 B8 | ^F4 A4 G4 A4 | z4 e8 d4- | d2 c2 B2 (A2 B8) | A8 e4 c4- | c4 B4 c3 c B2 A2 | %21
w: will and plea- sure is,|and plea- sure is,|re- lease|* me of my *|smart. Thou seest|* my sor- rows what they|
 B4 B4 G8 | A4 B4 G4 A4 | B8 A4 G4 | c4 d2 e2 f4 (e4 | d8) c4 c4 | d4 (B4 A8) | e8- e4 d4 | %28
w: are, what they|are, my grief is|known to thee,|my grief is known to|* thee: and|there is *|none * that|
 =g4 e4 e4 B4 | e6 d2 B4 c4 | d4 e4 e8 | g4 f4 e8 | e6 d2 c2 A2 c2 d2 | e12 B4 | d4 (c4 B8) | %35
w: can re- move, or|take the same from|me, or take|the same from|me, or take the same from|me, the|same from *|
 A16 |] %36
w: me.|
V:4
 z4 z4 | z16 | z16 | z4 z4 A,,4 E,4- |[M:4/2] E,2 D,2 E,2 F,2 G,2 (E,2 F,4) | E,8 A,,4 ^G,,4 | %6
w: |||O Lord,|* of whom I do de\- *|pend, I do|
 (A,,8 E,8) | A,,8 z4 z4 | z4 E,4 F,6 D,2 | G,4 F,4 E,4 E,4 | A,,4 A,4 G,4 A,4 | E,4 E,4 =G,6 E,2 | %12
w: de\- *|pend,|be- hold my|care- ful heart, be-|hold my care- ful|heart: and when thy|
 ^C,2 A,,2 C,2 D,2 E,8 | z4 E,4 A,6 D,2 | ^C,2 A,,2 C,2 F,2 E,8 | z4 C,4 B,,6 C,2 | %16
w: will and plea- sure is,|and when thy|will and plea- sure is,|re- lease me|
 D,4 A,,4 E,4 F,4 | G,4 A,4 E,4 G,4- | G,2 A,2 (G,2 F,2 E,2) (D,2 E,4) | A,,8 z4 A,4 | %20
w: of my smart, re-|lease me, re- lease|* me of * * my *|smart. Thou|
 F,4 G,4 A,3 A, G,2 F,2 | E,8 z4 E,4 | D,4 B,,4 E,3 E, D,2 C,2 | B,,6 C,2 D,4 E,4 | %24
w: seest my sor- rows what they|are, thou|seest my sor- rows what they|are, my grief is|
 C,4 G,4 F,4 C,4 | F,4 G,4 C,8 | z4 z4 A,,4 A,4- | A,2 A,2 ^G,4 A,4 B,4- | B,2 (G,2 A,4) E,8 | %29
w: known to thee, is|known to thee:|and there|* is none that can|* re\- * move,|
 z16 | z4 E,4 A,6 =G,2 | E,4 (F,4 G,4 A,4) | E,8 z4 z4 | z4 A,,4 E,6 D,2 | B,,4 (C,4 D,4 E,4) | %35
w: |or take the|same from * *|me,|or take the|same from * *|
 A,,16 |] %36
w: me.|

